src/svg/arrow-circle-right.svg

<svg height="1000" width="1000.0" xmlns="http://www.w3.org/2000/svg">
    <path d="m500 15.6c267.6 0 484.4 216.8 484.4 484.4s-216.8 484.4-484.4 484.4-484.4-216.8-484.4-484.4 216.8-484.4 484.4-484.4z m-56.4 280.5l147.4 141.4h-356.6c-26 0-46.9 20.9-46.9 46.9v31.2c0 26 20.9 46.9 46.9 46.9h356.6l-147.4 141.4c-19 18.2-19.4 48.4-0.8 67l21.5 21.3c18.3 18.3 48 18.3 66.2 0l259.1-259c18.4-18.4 18.4-48 0-66.2l-259.1-259.4c-18.4-18.3-48.1-18.3-66.2 0l-21.5 21.3c-18.6 18.8-18.2 49 0.8 67.2z" />
  </svg>

<svg height="1000" width="1000" xmlns="http://www.w3.org/2000/svg"><path d="M500 15.6c267.6 0 484.4 216.8 484.4 484.4S767.6 984.4 500 984.4 15.6 767.6 15.6 500 232.4 15.6 500 15.6zm-56.4 280.5L591 437.5H234.4c-26 0 -46.9 20.9 -46.9 46.9v31.2c0 26 20.9 46.9 46.9 46.9H591L443.6 703.9c-19 18.2 -19.4 48.4 -.8 67l21.5 21.3c18.3 18.3 48 18.3 66.2 0l259.1 -259c18.4 -18.4 18.4 -48 0 -66.2L530.5 207.6c-18.4 -18.3 -48.1 -18.3 -66.2 0l-21.5 21.3c-18.6 18.8 -18.2 49 .8 67.2z"/></svg>
